!!!COM: Webern, Anton (Friedrich Wilhelm von)
!!!OTL: Movement 'Ruhig' (Quiet) for String Trio
!!!OMV:
!!!example: 404
!!!work: Web-22
**kern	**dynam	**kern	**dynam	**kern	**dynam
*part3	*part3	*part2	*part2	*part1	*part1
*staff3	*	*staff2	*	*staff1	*
*I"Violoncello	*	*I"Viola	*	*I"Violin I	*
*I'Vc.	*	*I'Vla.	*	*I'Vln. I	*
*clefF4	*	*clefC3	*	*clefG2	*
*k[]	*	*k[]	*	*k[]	*
*C:	*	*C:	*	*C:	*
*M2/8	*	*M2/8	*	*M2/8	*
*MM121	*	*MM121	*	*MM121	*
=17	=17	=17	=17	=17	=17
32.r	.	64r	.	48r	.
.	.	64ccn'LLLL	p	.	.
.	.	.	.	48r	.
.	.	(64cc	>	.	.
.	.	.	.	48Gn	p
64GG#X	pp	64Bn')	]	.	.
48r	.	(64Bn	> pp	48r	.
.	.	64b-X')	.	.	.
24A	< >	.	.	48r	pp
.	.	64b-'	.	.	.
.	.	.	.	[48ee-XKKL	<
.	.	64b-'JJJJ	]	.	.
*	*	*clefG2	*	*	*
48r	] ]	64r	.	24ee-JJ	[ >
.	.	32dddnLLL	> p	.	.
48FFnLLL	> pp	.	.	.	.
48EnJJJ	.	.	.	48r	]
.	.	64ff#X'JJJk	.	.	.
*	*	*clefC3	*	*	*
16r	]	48r	]	64r	pp
.	.	.	.	64ccnLLLL	<
.	.	48gnLLL	pp	.	.
.	.	.	.	64bbn	[ >
.	.	48G#XJJJ	.	.	.
.	.	.	.	64b-XJJJJ	]
=18	=18	=18	=18	=18	=18
48r	.	32.r	.	64r	.
.	.	.	.	64aaan'LLLL	> p
48C#X'LLL	.	.	.	.	.
.	.	.	.	64eee-X'	.
48dn'JJJ	.	.	.	.	.
.	.	(64fnLLLL	> p	64een'JJJJ	.
64r	.	64F#X	.	48r	]
64GGn'LLLL	.	64cnJJJJ)	.	.	.
.	.	.	.	(48bnLLL	< p
64g#X'	.	32r	]	.	.
.	.	.	.	48bb-XJJ	.
64An'JJJJ	.	.	.	.	.
32.r	.	64r	.	48.ccc#XLL	[ >
.	.	64E-X'LLLL	> pp	.	.
.	.	64dn'JJJJ	.	48.ffnJJJ)	.
64EEn'	pp	64r	]	.	.
48r	.	48r	.	64r	]
.	.	.	.	64f#X'LLLL	pp
24Cn~	< pp > ]]	48r	.	.	.
.	.	.	.	64Gn'	.
.	.	[48bn	pp < [[	.	.
.	.	.	.	64g#X'JJJJ	.
=19	=19	=19	=19	=19	=19
32r	]	48bLLL	>	32.r	.
.	.	48B-X	.	.	.
64AAn'LLLL	> pp	.	.	.	.
.	.	48cnJJJ	.	.	.
64E-X'JJJJ	.	.	.	64ddn'KKKL	pp
16r	]	32.r	]	(48fnLL	>
.	.	.	.	48een	.
.	.	.	.	48fff#XJJJ)	.
.	.	64G 64c	ppp	.	.
*clefC3	*	*	*	*	*
48r	.	32r	.	32.r	]
(48ddnLLL	> p	.	.	.	.
*	*	*clefG2	*	*	*
.	.	(64g#XLLLL	< p	.	.
48d-XJJJ)	]	.	.	.	.
.	.	64aanJJJJ)	.	64c#X'KLLL	> p
*clefF4	*	*	*	*	*
48r	.	48r	[	(32.ee-X	.
24DDn~	< pp > ]]	48r	.	.	.
*	*	*clefC3	*	*	*
.	.	48Fn~	pp	.	.
.	.	.	.	64enJJJk)	]]
=20	=20	=20	=20	=20	=20
32r	.	16r	.	48r	.
.	.	.	.	48ccnLLL	> pp
64Gn'LLLL	] > pp	.	.	.	.
.	.	.	.	48BnJJJ	.
64g#X'JJJJ	.	.	.	.	.
48r	]	32r	.	16r	]
48r	.	.	.	.	.
.	.	(16b-XLL	< p	.	.
48An~	pp	.	.	.	.
16r	.	.	.	48r	.
.	.	.	.	48r	.
.	.	16cc#X	[ >	.	.
.	.	.	.	(48eeee-XKKL	> p
64FFn~LLLL	> p	.	.	48dddLL	.
64EnJJJJ	.	.	.	.	.
.	.	.	.	48ff#X	.
64r	.	32c#XJJk)	]]	.	.
.	.	.	.	48GnJJJ)	]
64BBn	]	.	.	.	.
=21	=21	=21	=21	=21	=21
16r	.	16r	.	32g#XLLL	< < pp
.	.	.	.	32bb-XJ	[
48r	.	32.r	.	16AnJJ	[ >
48C#X~LLL	> pp	.	.	.	.
48e-X~JJJ	.	.	.	.	.
*	*	*clefG2	*	*	*
.	.	64ddn	pp	.	.
24r	]	40r	.	8r	]]
.	.	(40ffnLLL	>	.	.
24EnLL	> ppp	.	.	.	.
.	.	40f#X	.	.	.
.	.	40cn	.	.	.
24GnJJ	]	.	.	.	.
.	.	40bnJJJ)	]	.	.
=22	=22	=22	=22	=22	=22
48r	.	16r	.	32.r	.
[24GG#XKL	< pp	.	.	.	.
.	.	.	.	(64b-XKKKL	< pp
*	*	*clefC3	*	*	*
24GG#JJ	[ >	48r	.	48aanLL	[ >
.	.	24c#X~	< pp >	96ee-X'JJJk)	]
.	.	.	.	32r	.
48r	]	.	.	.	.
8r	.	8r	] ]	(16dddnLL	> ppp
.	.	.	.	16ffnJJ)	]]
=23	=23	=23	=23	=23	=23
32r	.	16r	.	16r	.
32EnLLL	< pp	.	.	.	.
32f#X	[ >	32.r	.	48r	.
.	.	.	.	(48ccnLLL	> pp
32GnJJJ	]	.	.	.	.
.	.	.	.	48BnJJJ)	.
.	.	([64gg#XKKKL	< pp	.	.
32r	.	12gg#]	[ >	16r	]
32BB-X'LLL	> pp	.	.	.	.
32An'JJJ	.	.	.	(32ccc#XLLL	pp
.	.	24dd#XJk)	]	.	.
32r	]	.	.	32dnJJJ)	.
=24	=24	=24	=24	=24	=24
16r	.	48r	.	16r	.
.	.	(48fnLLL	ppp	.	.
.	.	48EnJJJ)	.	.	.
*clefC3	*	*	*	*	*
32.r	.	48r	.	16f#X'LL	> ppp
.	.	24Dn~	pp	.	.
64ddn~	ppp	.	.	.	.
8r	.	8r	.	16Gn'JJ	.
.	.	.	.	16r	]
=	=	=	=	=	=
*-	*-	*-	*-	*-	*-
!!!system-decoration: [(s1,s2,s3)]
!!!CDT: 1883/12/03-1945/09/15
!!!CBL: Vienna, Austria
!!!CDL: Mittersill, Austria
!!!CNT: Austrian
!!!AGN: Instrumental; Chamber
!!!MCN:
!!!MDT: 1963/02/08
!!!MGN:
!!!MLC: Vienna, Austria
!!!MPD: 1963
!!!MPN: Altmann, Eugenie; Hiller, Friedrich; Redtenbacher, Viktor
!!!ODT: 1925
!!!PDT: 1966
!!!excerpt-start-measure: 17
!!!excerpt-end-measure: 24
!!!excerpt-start-time: 1:19
!!!excerpt-end-time: 1:57
!!!EEV: 2020/01/27
!!!ONB: Converted from MusicXML on 2020/01/27
